X: 36389
T: Seán Ryan's
R: hornpipe
M: 4/4
K: Cmajor
EG|c2 (3(dcB) cGEC|G,CEG FEFA|d^cde fed=c|Bg (3(g^fg) ag=fd|
c2 (3(dcB) cGEC|G,CEG FEFA|d^cde (3(fed) BG|c2 (3(Bcd) c2:|
|:EG|cBce g^fag|ec (3(cBc) GCEG|FEFA d^cde|fedc BGEG|
cBce g^fag|ec (3(cBc) GCEG|FEFA (3(fed) BG|c2 (3(Bcd) c2:|

